X: 67
T:Sunshine Hornpipe
R:Hornpipe
S:Dubliners Album
Z:Added by alf.warnock@rogers.com
M:4/4
L:1/8
K:A
cd|:(3eae (3cec (3AcA EA|CEAc ecAc|(3ded (3cdc (3BcB (3ABA|GeFe E2 cd|
(3eae (3cec (3AcA EA|CEAc defg|(3agf (3edc (3fed (3cBA|(3GAB (3EFG A2:|
Bc|dBGB EGBc|dBGB d2ga|ec (3cBA EA (3cd^d|ec (3Ace a2 ga|
fdAd (3fed (3cBA|(3GAB (3AGF E2 cd|eafd cABG|Aa (3gec A2:|

